X: 263
T: A Memory Of Friends Past
R: waltz
M: 3/4
K: Gmajor
G,3 B, D2|G/A/G F2 =F2|E2 ^D2 E2|C4 B,2|A,2 A,B, C2|D2 DE F2|G2 D2 C2|B,3 C B,A,|
G,2 B,C D2|G2 F2 =F2|E3 ^D E2|C4 B,2|A,2 A,B, C2|D2 E2 F2|G6-|G2||
D2 G2|B^A- A2 B2|G2 D2 G2|c3 B c2|A4 G2|FG A2 F2|D2 DE FD|G2 D2 C2|B,3 C BA|
B2 B^A B=A|G/A/G D2 G2|E2 ^D2 E2|C4 B,2|A,2 A,B, C2|D2 DE F2|G6-|G6||
G2 B2 d2|g2 f2 =f2|e2 ^d2 e2|c4 B2|A2 AB cA|d2 de fd|g2 d2 c2|B3 c BA|
G2 Bc d2|g2 f/g/f =f2|e2 ^d2 e2|c4 B2|A3 B cA|d2 de fd|g6-|g2||
d2 g2|b3 ^a b2|g2 d/e/d B2|c'3 b c'2|a4 g2|fg a2- af|d3 e f2|g/a/g d/e/d c/d/c|B3 c dg|
b^a- a2 b2|g2 d2- dG|e2 ^d2 e2|c4 B2|A3 B c/B/A|d2 de fd|g2 d2 B2|G6||

